X: 18646
T: I'd Rather Be Married Than Left
R: slide
M: 12/8
K: Dmajor
|:F|ABA AFA|d2A A2F|ABA AFA|B2E E2F|
ABA AFA|Beg f2e|dcB ABc|d2D D2:|
|:e|f2f fed|e2A A2e|fef def|gag e2g|
fef g2e|fef a2f|efe ABc|d2D D2:|

